assets/misc-grey/MiscGrey42.svg

<svg width="37" height="32" viewBox="0 0 37 32" fill="none" xmlns="http://www.w3.org/2000/svg">
<path fill-rule="evenodd" clip-rule="evenodd" d="M1.84802 0.821007C1.01902 0.821007 0.348022 1.48401 0.348022 2.30301V29.936C0.348022 30.753 1.01902 31.417 1.84802 31.417C2.67602 31.417 3.34802 30.753 3.34802 29.936V2.30301C3.34802 1.48401 2.67602 0.821007 1.84802 0.821007ZM32.874 17.179L14.06 28.251C13.318 28.637 12.661 28.717 12.256 28.469C11.808 28.196 11.54 27.46 11.54 26.5V5.75001C11.54 4.72401 11.849 3.95701 12.389 3.64801C12.578 3.54101 12.8 3.48601 13.048 3.48601C13.476 3.48601 13.98 3.64601 14.521 3.96401L32.58 13.928C33.351 14.314 33.814 14.897 33.851 15.525C33.887 16.143 33.508 16.76 32.874 17.179ZM33.977 11.273L16.005 1.35701C14.233 0.315007 12.372 0.201007 10.899 1.04501C9.39902 1.90201 8.54002 3.61701 8.54002 5.75001V26.5C8.54002 28.577 9.30602 30.187 10.698 31.032C11.33 31.417 12.039 31.61 12.798 31.61C13.65 31.61 14.566 31.367 15.511 30.876L34.458 19.726C36.052 18.678 36.945 17.042 36.846 15.351C36.747 13.648 35.655 12.114 33.977 11.273Z" fill="#1A1919"/>
</svg>

<svg xmlns="http://www.w3.org/2000/svg" viewBox="0 0 37 32"><path fill-rule="evenodd" d="M1.848.821c-.829 0-1.5.663-1.5 1.482v27.633a1.49 1.49 0 001.5 1.481c.828 0 1.5-.664 1.5-1.481V2.303c0-.819-.672-1.482-1.5-1.482zm31.026 16.358L14.06 28.251c-.742.386-1.399.466-1.804.218-.448-.273-.716-1.009-.716-1.969V5.75c0-1.026.309-1.793.849-2.102.189-.107.411-.162.659-.162.428 0 .932.16 1.473.478l18.059 9.964c.771.386 1.234.969 1.271 1.597.036.618-.343 1.235-.977 1.654zm1.103-5.906L16.005 1.357C14.233.315 12.372.201 10.899 1.045c-1.5.857-2.359 2.572-2.359 4.705V26.5c0 2.077.766 3.687 2.158 4.532a3.981 3.981 0 002.1.578c.852 0 1.768-.243 2.713-.734l18.947-11.15c1.594-1.048 2.487-2.684 2.388-4.375-.099-1.703-1.191-3.237-2.869-4.078z" clip-rule="evenodd"/></svg>
